humanity-icon-theme/Humanity/actions/24/mail-send.svg

<?xml version="1.0" encoding="UTF-8" standalone="no"?>
<!-- Created with Inkscape (http://www.inkscape.org/) -->

<svg
   xmlns:svg="http://www.w3.org/2000/svg"
   xmlns="http://www.w3.org/2000/svg"
   xmlns:xlink="http://www.w3.org/1999/xlink"
   version="1.0"
   width="24"
   height="24"
   id="svg2693">
  <defs
     id="defs2695">
    <linearGradient
       id="linearGradient5060-6-986-342-61">
      <stop
         id="stop4080"
         style="stop-color:#1e1e1e;stop-opacity:1"
         offset="0" />
      <stop
         id="stop4082"
         style="stop-color:#1e1e1e;stop-opacity:0"
         offset="1" />
    </linearGradient>
    <radialGradient
       cx="605.71429"
       cy="486.64789"
       r="117.14286"
       fx="605.71429"
       fy="486.64789"
       id="radialGradient2724-226-535-494"
       xlink:href="#linearGradient5060-6-986-342-61"
       gradientUnits="userSpaceOnUse"
       gradientTransform="matrix(-0.06553443,0,0,0.02470588,-21.829255,10.577352)" />
    <linearGradient
       id="linearGradient5060-6-252-476-367">
      <stop
         id="stop4074"
         style="stop-color:#1e1e1e;stop-opacity:1"
         offset="0" />
      <stop
         id="stop4076"
         style="stop-color:#1e1e1e;stop-opacity:0"
         offset="1" />
    </linearGradient>
    <radialGradient
       cx="605.71429"
       cy="486.64789"
       r="117.14286"
       fx="605.71429"
       fy="486.64789"
       id="radialGradient2722-303-187-273"
       xlink:href="#linearGradient5060-6-252-476-367"
       gradientUnits="userSpaceOnUse"
       gradientTransform="matrix(0.06553443,0,0,0.02470588,-69.175497,10.577352)" />
    <linearGradient
       id="linearGradient5048-7-668-934-892">
      <stop
         id="stop4066"
         style="stop-color:#1e1e1e;stop-opacity:0"
         offset="0" />
      <stop
         id="stop4068"
         style="stop-color:#1e1e1e;stop-opacity:1"
         offset="0.5" />
      <stop
         id="stop4070"
         style="stop-color:#1e1e1e;stop-opacity:0"
         offset="1" />
    </linearGradient>
    <linearGradient
       x1="302.85715"
       y1="366.64789"
       x2="302.85715"
       y2="609.50507"
       id="linearGradient2720-766-26-906"
       xlink:href="#linearGradient5048-7-668-934-892"
       gradientUnits="userSpaceOnUse"
       gradientTransform="matrix(0.06553443,0,0,0.02470588,-69.188394,10.577352)" />
    <linearGradient
       id="linearGradient2490-495-150-777">
      <stop
         id="stop4108"
         style="stop-color:#727272;stop-opacity:1"
         offset="0" />
      <stop
         id="stop4110"
         style="stop-color:#bebebe;stop-opacity:1"
         offset="1" />
    </linearGradient>
    <linearGradient
       x1="28.103424"
       y1="45.000065"
       x2="28.103424"
       y2="14.038458"
       id="linearGradient2687"
       xlink:href="#linearGradient2490-495-150-777"
       gradientUnits="userSpaceOnUse"
       gradientTransform="matrix(0.4666666,0,0,0.5006418,0.8000218,-3.7785543)" />
    <linearGradient
       id="linearGradient3242-967-12-570-862-307">
      <stop
         id="stop4498"
         style="stop-color:#ffffff;stop-opacity:1"
         offset="0" />
      <stop
         id="stop4502"
         style="stop-color:#cfcfcf;stop-opacity:1"
         offset="0.87426931" />
      <stop
         id="stop4504"
         style="stop-color:#999999;stop-opacity:1"
         offset="1" />
    </linearGradient>
    <linearGradient
       x1="20.052792"
       y1="8.163353"
       x2="19.875452"
       y2="45.60001"
       id="linearGradient2685"
       xlink:href="#linearGradient3242-967-12-570-862-307"
       gradientUnits="userSpaceOnUse"
       gradientTransform="matrix(0.4666666,0,0,0.4545454,0.8000219,-1.7272766)" />
    <linearGradient
       id="linearGradient3333-314-917-262">
      <stop
         id="stop4102"
         style="stop-color:#ffffff;stop-opacity:1"
         offset="0" />
      <stop
         id="stop4104"
         style="stop-color:#ffffff;stop-opacity:0"
         offset="1" />
    </linearGradient>
    <linearGradient
       x1="25.57654"
       y1="15.000002"
       x2="25.57654"
       y2="44.00053"
       id="linearGradient2682"
       xlink:href="#linearGradient3333-314-917-262"
       gradientUnits="userSpaceOnUse"
       gradientTransform="matrix(0.4418603,0,0,0.4642857,1.3953711,-2.6964344)" />
    <linearGradient
       id="linearGradient3495-841-851-719">
      <stop
         id="stop4120"
         style="stop-color:#1e1e1e;stop-opacity:1"
         offset="0" />
      <stop
         id="stop4122"
         style="stop-color:#1e1e1e;stop-opacity:0"
         offset="1" />
    </linearGradient>
    <linearGradient
       x1="23.903786"
       y1="35.75"
       x2="23.903786"
       y2="16.00676"
       id="linearGradient2679"
       xlink:href="#linearGradient3495-841-851-719"
       gradientUnits="userSpaceOnUse"
       gradientTransform="matrix(0.4657385,0,0,0.4850945,0.8223599,-1.4684474)" />
    <linearGradient
       id="linearGradient3495-841-851-719-5">
      <stop
         id="stop4120-6"
         style="stop-color:#1e1e1e;stop-opacity:1"
         offset="0" />
      <stop
         id="stop4122-2"
         style="stop-color:#1e1e1e;stop-opacity:0"
         offset="1" />
    </linearGradient>
    <linearGradient
       x1="23.928667"
       y1="30.773148"
       x2="23.928667"
       y2="45.530704"
       id="linearGradient2676"
       xlink:href="#linearGradient3495-841-851-719-5"
       gradientUnits="userSpaceOnUse"
       gradientTransform="matrix(0.4657322,0,0,0.485095,0.8221712,-3.101882)" />
    <linearGradient
       id="linearGradient3303">
      <stop
         id="stop3305"
         style="stop-color:#cc7032;stop-opacity:1"
         offset="0" />
      <stop
         id="stop3307"
         style="stop-color:#bb2d13;stop-opacity:1"
         offset="0.8271265" />
      <stop
         id="stop3309"
         style="stop-color:#a87300;stop-opacity:0"
         offset="1" />
    </linearGradient>
    <linearGradient
       x1="23.001888"
       y1="19.0702"
       x2="9"
       y2="19"
       id="linearGradient2646"
       xlink:href="#linearGradient3303"
       gradientUnits="userSpaceOnUse"
       gradientTransform="matrix(0.00327238,-0.9999947,0.9999947,0.00327238,-0.0547757,22.932865)" />
    <linearGradient
       id="linearGradient3311">
      <stop
         id="stop3313"
         style="stop-color:#ecb56c;stop-opacity:1"
         offset="0" />
      <stop
         id="stop3315"
         style="stop-color:#e86225;stop-opacity:1"
         offset="0.82442904" />
      <stop
         id="stop3317"
         style="stop-color:#b07c0b;stop-opacity:0"
         offset="1" />
    </linearGradient>
    <linearGradient
       x1="3.3757787"
       y1="12.861139"
       x2="47.224953"
       y2="12.162322"
       id="linearGradient2644"
       xlink:href="#linearGradient3311"
       gradientUnits="userSpaceOnUse"
       gradientTransform="matrix(-0.00104535,0.3194453,-0.3133503,-0.00102541,24.834997,-1.0716844)" />
    <linearGradient
       id="linearGradient4222-0">
      <stop
         id="stop4224-8"
         style="stop-color:#ffffff;stop-opacity:1"
         offset="0" />
      <stop
         id="stop4226-8"
         style="stop-color:#ffffff;stop-opacity:0"
         offset="1" />
    </linearGradient>
    <linearGradient
       x1="22.488874"
       y1="27.182123"
       x2="3.5953195"
       y2="27.182123"
       id="linearGradient2641"
       xlink:href="#linearGradient4222-0"
       gradientUnits="userSpaceOnUse"
       gradientTransform="matrix(0.0012124,-0.3704947,-0.3617477,-0.00118378,26.803295,15.352768)" />
  </defs>
  <g
     id="layer1">
    <g
       transform="matrix(0.5004043,0,0,0.5,34.769609,7.582143)"
       id="g3511"
       style="stroke-width:1.03041875;stroke-miterlimit:4;stroke-dasharray:none">
      <rect
         width="31.643764"
         height="6.0000005"
         x="-61.324265"
         y="19.635714"
         id="rect2512"
         style="opacity:0.40206185;fill:url(#linearGradient2720-766-26-906);fill-opacity:1;fill-rule:nonzero;stroke:none;stroke-width:1.03041875;marker:none;visibility:visible;display:inline;overflow:visible" />
      <path
         d="m -29.680498,19.635919 c 0,0 0,5.999669 0,5.999669 3.374861,0.01129 8.158771,-1.344221 8.158769,-3.000221 0,-1.655999 -3.76609,-2.999448 -8.158769,-2.999448 z"
         id="path2514"
         style="opacity:0.40206185;fill:url(#radialGradient2722-303-187-273);fill-opacity:1;fill-rule:nonzero;stroke:none;stroke-width:1.03041875;marker:none;visibility:visible;display:inline;overflow:visible" />
      <path
         d="m -61.324263,19.635919 c 0,0 0,5.999669 0,5.999669 -3.374861,0.01129 -8.158771,-1.344221 -8.158771,-3.000221 0,-1.655999 3.766091,-2.999448 8.158771,-2.999448 l 0,0 z"
         id="path2516"
         style="opacity:0.40206185;fill:url(#radialGradient2724-226-535-494);fill-opacity:1;fill-rule:nonzero;stroke:none;stroke-width:1.03041875;marker:none;visibility:visible;display:inline;overflow:visible" />
    </g>
    <rect
       width="20.992958"
       height="12.992959"
       rx="0.46666664"
       ry="0.45454553"
       x="1.5070642"
       y="5.507041"
       id="rect2396"
       style="fill:url(#linearGradient2685);fill-opacity:1;fill-rule:evenodd;stroke:url(#linearGradient2687);stroke-width:1;stroke-linecap:square;stroke-linejoin:round;stroke-miterlimit:4;stroke-opacity:1;stroke-dasharray:none;stroke-dashoffset:0;marker:none;visibility:visible;display:inline;overflow:visible;enable-background:accumulate" />
    <rect
       width="19"
       height="11.140846"
       rx="0.036476243"
       ry="0.035004593"
       x="2.5000219"
       y="6.3591537"
       id="rect3331"
       style="opacity:0.4;fill:none;stroke:url(#linearGradient2682);stroke-width:0.99999994;stroke-linecap:square;stroke-linejoin:miter;stroke-miterlimit:4;stroke-opacity:1;stroke-dasharray:none;stroke-dashoffset:0;marker:none;visibility:visible;display:inline;overflow:visible;enable-background:accumulate" />
    <path
       d="M 1.8491783,6.145946 12.000084,15.281999 21.93723,6.145946"
       id="path3493"
       style="opacity:0.5;fill:none;stroke:url(#linearGradient2679);stroke-width:1.00000012;stroke-linecap:butt;stroke-linejoin:miter;stroke-miterlimit:4;stroke-opacity:1;stroke-dasharray:none" />
    <path
       d="m 8.6221345,13.013399 -6.5001156,5.455604 m 13.3476881,-5.63594 6.341318,5.63594"
       id="path3341"
       style="opacity:0.5;fill:none;stroke:url(#linearGradient2676);stroke-width:0.99999374;stroke-linecap:butt;stroke-linejoin:miter;stroke-miterlimit:4;stroke-opacity:1;stroke-dasharray:none;stroke-dashoffset:0;marker:none;visibility:visible;display:inline;overflow:visible;enable-background:accumulate" />
    <path
       d="m 20.476199,13.501 0.02291,-7.000963 3.000837,0.0098 L 18.518611,0.492504 13.499,6.47711 l 3.000131,0.0098 -0.02291,7.000962"
       id="path2619"
       style="fill:url(#linearGradient2644);fill-opacity:1;fill-rule:nonzero;stroke:url(#linearGradient2646);stroke-width:0.99800003;stroke-linecap:butt;stroke-linejoin:round;stroke-miterlimit:4;stroke-opacity:1;stroke-dasharray:none;stroke-dashoffset:0;marker:none;visibility:visible;display:inline;overflow:visible" />
    <path
       d="m 19.476207,13.496727 0.02618,-7.999957 1.950843,0.0064 -2.939384,-3.554638 -2.811585,3.535819 1.800137,0.0059 -0.02618,7.999958"
       id="path2621"
       style="opacity:0.3;fill:none;stroke:url(#linearGradient2641);stroke-width:0.99829447;stroke-linecap:butt;stroke-linejoin:miter;stroke-miterlimit:4;stroke-opacity:1;stroke-dasharray:none;stroke-dashoffset:0;marker:none;visibility:visible;display:inline;overflow:visible" />
  </g>
</svg>

<?xml version="1.0" encoding="UTF-8" standalone="no"?>
<!-- Created with Inkscape (http://www.inkscape.org/) -->
<svg
   xmlns:svg="http://www.w3.org/2000/svg"
   xmlns="http://www.w3.org/2000/svg"
   xmlns:xlink="http://www.w3.org/1999/xlink"
   version="1.0"
   width="24"
   height="24"
   id="svg2693">
  <defs
     id="defs2695">
    <linearGradient
       id="linearGradient5060-6-986-342-61">
      <stop
         id="stop4080"
         style="stop-color:#1e1e1e;stop-opacity:1"
         offset="0" />
      <stop
         id="stop4082"
         style="stop-color:#1e1e1e;stop-opacity:0"
         offset="1" />
    </linearGradient>
    <radialGradient
       cx="605.71429"
       cy="486.64789"
       r="117.14286"
       fx="605.71429"
       fy="486.64789"
       id="radialGradient2724-226-535-494"
       xlink:href="#linearGradient5060-6-986-342-61"
       gradientUnits="userSpaceOnUse"
       gradientTransform="matrix(-6.553443e-2,0,0,2.470588e-2,-21.829255,10.577352)" />
    <linearGradient
       id="linearGradient5060-6-252-476-367">
      <stop
         id="stop4074"
         style="stop-color:#1e1e1e;stop-opacity:1"
         offset="0" />
      <stop
         id="stop4076"
         style="stop-color:#1e1e1e;stop-opacity:0"
         offset="1" />
    </linearGradient>
    <radialGradient
       cx="605.71429"
       cy="486.64789"
       r="117.14286"
       fx="605.71429"
       fy="486.64789"
       id="radialGradient2722-303-187-273"
       xlink:href="#linearGradient5060-6-252-476-367"
       gradientUnits="userSpaceOnUse"
       gradientTransform="matrix(6.553443e-2,0,0,2.470588e-2,-69.175497,10.577352)" />
    <linearGradient
       id="linearGradient5048-7-668-934-892">
      <stop
         id="stop4066"
         style="stop-color:#1e1e1e;stop-opacity:0"
         offset="0" />
      <stop
         id="stop4068"
         style="stop-color:#1e1e1e;stop-opacity:1"
         offset="0.5" />
      <stop
         id="stop4070"
         style="stop-color:#1e1e1e;stop-opacity:0"
         offset="1" />
    </linearGradient>
    <linearGradient
       x1="302.85715"
       y1="366.64789"
       x2="302.85715"
       y2="609.50507"
       id="linearGradient2720-766-26-906"
       xlink:href="#linearGradient5048-7-668-934-892"
       gradientUnits="userSpaceOnUse"
       gradientTransform="matrix(6.553443e-2,0,0,2.470588e-2,-69.188394,10.577352)" />
    <linearGradient
       id="linearGradient2490-495-150-777">
      <stop
         id="stop4108"
         style="stop-color:#727272;stop-opacity:1"
         offset="0" />
      <stop
         id="stop4110"
         style="stop-color:#bebebe;stop-opacity:1"
         offset="1" />
    </linearGradient>
    <linearGradient
       x1="28.103424"
       y1="45.000065"
       x2="28.103424"
       y2="14.038458"
       id="linearGradient2687"
       xlink:href="#linearGradient2490-495-150-777"
       gradientUnits="userSpaceOnUse"
       gradientTransform="matrix(0.4666666,0,0,0.5006418,0.8000218,-3.7785543)" />
    <linearGradient
       id="linearGradient3242-967-12-570-862-307">
      <stop
         id="stop4498"
         style="stop-color:#ffffff;stop-opacity:1"
         offset="0" />
      <stop
         id="stop4502"
         style="stop-color:#cfcfcf;stop-opacity:1"
         offset="0.87426931" />
      <stop
         id="stop4504"
         style="stop-color:#999999;stop-opacity:1"
         offset="1" />
    </linearGradient>
    <linearGradient
       x1="20.052792"
       y1="8.163353"
       x2="19.875452"
       y2="45.60001"
       id="linearGradient2685"
       xlink:href="#linearGradient3242-967-12-570-862-307"
       gradientUnits="userSpaceOnUse"
       gradientTransform="matrix(0.4666666,0,0,0.4545454,0.8000219,-1.7272766)" />
    <linearGradient
       id="linearGradient3333-314-917-262">
      <stop
         id="stop4102"
         style="stop-color:#ffffff;stop-opacity:1"
         offset="0" />
      <stop
         id="stop4104"
         style="stop-color:#ffffff;stop-opacity:0"
         offset="1" />
    </linearGradient>
    <linearGradient
       x1="25.57654"
       y1="15.000002"
       x2="25.57654"
       y2="44.00053"
       id="linearGradient2682"
       xlink:href="#linearGradient3333-314-917-262"
       gradientUnits="userSpaceOnUse"
       gradientTransform="matrix(0.4418603,0,0,0.4642857,1.3953711,-2.6964344)" />
    <linearGradient
       id="linearGradient3495-841-851-719">
      <stop
         id="stop4120"
         style="stop-color:#1e1e1e;stop-opacity:1"
         offset="0" />
      <stop
         id="stop4122"
         style="stop-color:#1e1e1e;stop-opacity:0"
         offset="1" />
    </linearGradient>
    <linearGradient
       x1="23.903786"
       y1="35.75"
       x2="23.903786"
       y2="16.00676"
       id="linearGradient2679"
       xlink:href="#linearGradient3495-841-851-719"
       gradientUnits="userSpaceOnUse"
       gradientTransform="matrix(0.4657385,0,0,0.4850945,0.8223599,-1.4684474)" />
    <linearGradient
       id="linearGradient3495-841-851-719-5">
      <stop
         id="stop4120-6"
         style="stop-color:#1e1e1e;stop-opacity:1"
         offset="0" />
      <stop
         id="stop4122-2"
         style="stop-color:#1e1e1e;stop-opacity:0"
         offset="1" />
    </linearGradient>
    <linearGradient
       x1="23.928667"
       y1="30.773148"
       x2="23.928667"
       y2="45.530704"
       id="linearGradient2676"
       xlink:href="#linearGradient3495-841-851-719-5"
       gradientUnits="userSpaceOnUse"
       gradientTransform="matrix(0.4657322,0,0,0.485095,0.8221712,-3.101882)" />
    <linearGradient
       id="linearGradient3303">
      <stop
         id="stop3305"
         style="stop-color:#cc7032;stop-opacity:1"
         offset="0" />
      <stop
         id="stop3307"
         style="stop-color:#bb2d13;stop-opacity:1"
         offset="0.8271265" />
      <stop
         id="stop3309"
         style="stop-color:#a87300;stop-opacity:0"
         offset="1" />
    </linearGradient>
    <linearGradient
       x1="23.001888"
       y1="19.0702"
       x2="9"
       y2="19"
       id="linearGradient2646"
       xlink:href="#linearGradient3303"
       gradientUnits="userSpaceOnUse"
       gradientTransform="matrix(3.27238e-3,-0.9999947,0.9999947,3.27238e-3,-5.47757e-2,32.932865)" />
    <linearGradient
       id="linearGradient3311">
      <stop
         id="stop3313"
         style="stop-color:#ecb56c;stop-opacity:1"
         offset="0" />
      <stop
         id="stop3315"
         style="stop-color:#e86225;stop-opacity:1"
         offset="0.82442904" />
      <stop
         id="stop3317"
         style="stop-color:#b07c0b;stop-opacity:0"
         offset="1" />
    </linearGradient>
    <linearGradient
       x1="3.3757787"
       y1="12.861139"
       x2="47.224953"
       y2="12.162322"
       id="linearGradient2644"
       xlink:href="#linearGradient3311"
       gradientUnits="userSpaceOnUse"
       gradientTransform="matrix(-1.04535e-3,0.3194453,-0.3133503,-1.02541e-3,24.834997,8.9283156)" />
    <linearGradient
       id="linearGradient4222-0">
      <stop
         id="stop4224-8"
         style="stop-color:#ffffff;stop-opacity:1"
         offset="0" />
      <stop
         id="stop4226-8"
         style="stop-color:#ffffff;stop-opacity:0"
         offset="1" />
    </linearGradient>
    <linearGradient
       x1="22.488874"
       y1="27.182123"
       x2="3.5953195"
       y2="27.182123"
       id="linearGradient2641"
       xlink:href="#linearGradient4222-0"
       gradientUnits="userSpaceOnUse"
       gradientTransform="matrix(1.2124e-3,-0.3704947,-0.3617477,-1.18378e-3,26.803295,25.352768)" />
  </defs>
  <g
     id="layer1">
    <g
       transform="matrix(0.5004043,0,0,0.5,34.769609,7.582143)"
       id="g3511"
       style="stroke-width:1.03041875;stroke-miterlimit:4;stroke-dasharray:none">
      <rect
         width="31.643764"
         height="6.0000005"
         x="-61.324265"
         y="19.635714"
         id="rect2512"
         style="opacity:0.40206185;fill:url(#linearGradient2720-766-26-906);fill-opacity:1;fill-rule:nonzero;stroke:none;stroke-width:1.03041875;marker:none;visibility:visible;display:inline;overflow:visible" />
      <path
         d="M -29.680498,19.635919 C -29.680498,19.635919 -29.680498,25.635588 -29.680498,25.635588 C -26.305637,25.646878 -21.521727,24.291367 -21.521729,22.635367 C -21.521729,20.979368 -25.287819,19.635919 -29.680498,19.635919 z"
         id="path2514"
         style="opacity:0.40206185;fill:url(#radialGradient2722-303-187-273);fill-opacity:1;fill-rule:nonzero;stroke:none;stroke-width:1.03041875;marker:none;visibility:visible;display:inline;overflow:visible" />
      <path
         d="M -61.324263,19.635919 C -61.324263,19.635919 -61.324263,25.635588 -61.324263,25.635588 C -64.699124,25.646878 -69.483034,24.291367 -69.483034,22.635367 C -69.483034,20.979368 -65.716943,19.635919 -61.324263,19.635919 L -61.324263,19.635919 z"
         id="path2516"
         style="opacity:0.40206185;fill:url(#radialGradient2724-226-535-494);fill-opacity:1;fill-rule:nonzero;stroke:none;stroke-width:1.03041875;marker:none;visibility:visible;display:inline;overflow:visible" />
    </g>
    <rect
       width="20.992958"
       height="12.992959"
       rx="0.46666664"
       ry="0.45454553"
       x="1.5070642"
       y="5.507041"
       id="rect2396"
       style="fill:url(#linearGradient2685);fill-opacity:1;fill-rule:evenodd;stroke:url(#linearGradient2687);stroke-width:1;stroke-linecap:square;stroke-linejoin:round;marker:none;stroke-miterlimit:4;stroke-dasharray:none;stroke-dashoffset:0;stroke-opacity:1;visibility:visible;display:inline;overflow:visible;enable-background:accumulate" />
    <rect
       width="19"
       height="11.140846"
       rx="0.036476243"
       ry="0.035004593"
       x="2.5000219"
       y="6.3591537"
       id="rect3331"
       style="opacity:0.4;fill:none;stroke:url(#linearGradient2682);stroke-width:0.99999994;stroke-linecap:square;stroke-linejoin:miter;marker:none;stroke-miterlimit:4;stroke-dasharray:none;stroke-dashoffset:0;stroke-opacity:1;visibility:visible;display:inline;overflow:visible;enable-background:accumulate" />
    <path
       d="M 1.8491783,6.145946 L 12.000084,15.281999 L 21.93723,6.145946"
       id="path3493"
       style="opacity:0.5;fill:none;stroke:url(#linearGradient2679);stroke-width:1.00000012;stroke-linecap:butt;stroke-linejoin:miter;stroke-miterlimit:4;stroke-dasharray:none;stroke-opacity:1" />
    <path
       d="M 8.6221345,13.013399 L 2.1220189,18.469003 M 15.469707,12.833063 L 21.811025,18.469003"
       id="path3341"
       style="opacity:0.5;fill:none;stroke:url(#linearGradient2676);stroke-width:0.99999374;stroke-linecap:butt;stroke-linejoin:miter;marker:none;stroke-miterlimit:4;stroke-dasharray:none;stroke-dashoffset:0;stroke-opacity:1;visibility:visible;display:inline;overflow:visible;enable-background:accumulate" />
    <path
       d="M 20.476199,23.501 L 20.499109,16.500037 L 23.499946,16.509837 L 18.518611,10.492504 L 13.499,16.47711 L 16.499131,16.48691 L 16.476221,23.487872"
       id="path2619"
       style="fill:url(#linearGradient2644);fill-opacity:1;fill-rule:nonzero;stroke:url(#linearGradient2646);stroke-width:0.99800003;stroke-linecap:butt;stroke-linejoin:round;marker:none;stroke-miterlimit:4;stroke-dasharray:none;stroke-dashoffset:0;stroke-opacity:1;visibility:visible;display:inline;overflow:visible" />
    <path
       d="M 19.476207,23.496727 L 19.502387,15.49677 L 21.45323,15.50317 L 18.513846,11.948532 L 15.702261,15.484351 L 17.502398,15.490251 L 17.476218,23.490209"
       id="path2621"
       style="opacity:0.3;fill:none;stroke:url(#linearGradient2641);stroke-width:0.99829447;stroke-linecap:butt;stroke-linejoin:miter;marker:none;stroke-miterlimit:4;stroke-dasharray:none;stroke-dashoffset:0;stroke-opacity:1;visibility:visible;display:inline;overflow:visible" />
  </g>
</svg>
